dist/upp/assets/img/submenu-1.svg

<svg width="32" height="32" viewBox="0 0 32 32" fill="none" xmlns="http://www.w3.org/2000/svg">
<g clip-path="url(#clip0_3007_6647)">
<path d="M22.7316 25H21.4926C21.2449 25 20.9971 24.7554 20.9971 24.5108C20.9971 24.2661 21.2449 24.0215 21.4926 24.0215H22.7316C22.9794 24.0215 23.2272 24.2661 23.2272 24.5108C23.2272 24.8369 23.062 25 22.7316 25Z" fill="#090909"/>
<path d="M18.9321 25H16.2891C16.0413 25 15.7935 24.7554 15.7935 24.5108C15.7935 24.2661 16.0413 24.0215 16.2891 24.0215H18.9321C19.1799 24.0215 19.4277 24.2661 19.4277 24.5108C19.4277 24.8369 19.1799 25 18.9321 25ZM13.7286 25H11.0855C10.8378 25 10.59 24.7554 10.59 24.5108C10.59 24.2661 10.8378 24.0215 11.0855 24.0215H13.7286C13.9764 24.0215 14.2242 24.2661 14.2242 24.5108C14.2242 24.8369 13.9764 25 13.7286 25Z" fill="#090909"/>
<path d="M8.52504 25H7.2861C7.03831 25 6.79053 24.7554 6.79053 24.5108C6.79053 24.2661 7.03831 24.0215 7.2861 24.0215H8.52504C8.77283 24.0215 9.02062 24.2661 9.02062 24.5108C9.02062 24.8369 8.77283 25 8.52504 25Z" fill="#090909"/>
<path d="M29.5044 25H22.7316C22.4838 25 22.236 24.7554 22.236 24.5107C22.236 24.2661 22.4838 24.0215 22.7316 24.0215H29.0088V6.97854H2.99115V24.0215H7.20354C7.45133 24.0215 7.69911 24.2661 7.69911 24.5107C7.69911 24.7554 7.45133 25 7.20354 25H2.49558C2.24779 25 2 24.7554 2 24.5107V6.48927C2 6.24464 2.24779 6 2.49558 6H29.5044C29.7522 6 30 6.24464 30 6.48927V24.5107C30 24.8369 29.8348 25 29.5044 25Z" fill="#090909"/>
<path d="M16.0413 17.0086C15.9587 17.0086 15.7935 17.0086 15.7109 16.9271L2.16519 6.89702C2 6.73393 1.91741 6.40775 2.0826 6.16312C2.24779 6.00003 2.57817 5.91848 2.82596 6.08157L16.0413 15.867L29.2566 6.08157C29.5044 5.91848 29.7522 6.00003 29.9174 6.16312C30.0826 6.40775 30.0826 6.73393 29.8348 6.89702L16.2891 16.9271C16.2065 16.9271 16.1239 17.0086 16.0413 17.0086Z" fill="#090909"/>
<path d="M2.49554 25C2.33035 25 2.24775 24.9185 2.16515 24.837C1.99996 24.6739 1.99996 24.3477 2.16515 24.103L12.7374 13.9915C12.9026 13.8284 13.233 13.8284 13.4808 13.9915C13.646 14.1545 13.646 14.4807 13.4808 14.7254L2.82592 24.9185C2.74332 25 2.66073 25 2.49554 25Z" fill="#090909"/>
<path d="M29.5045 25C29.3393 25 29.2567 24.9185 29.1741 24.837L18.6018 14.6438C18.4366 14.4807 18.4366 14.1546 18.6018 13.9099C18.767 13.7468 19.0974 13.7468 19.3452 13.9099L29.9174 24.103C30.0826 24.2661 30.0826 24.5923 29.9174 24.837C29.7522 25 29.6696 25 29.5045 25Z" fill="#090909"/>
</g>
<defs>
<clipPath id="clip0_3007_6647">
<rect width="28" height="19" fill="white" transform="translate(2 6)"/>
</clipPath>
</defs>
</svg>

<svg width="32" height="32" fill="none" xmlns="http://www.w3.org/2000/svg"><g clip-path="url(#clip0_3007_6647)" fill="#090909"><path d="M22.732 25h-1.24c-.247 0-.495-.245-.495-.49 0-.244.248-.489.496-.489h1.239c.247 0 .495.245.495.49 0 .326-.165.489-.495.489zm-3.8 0H16.29c-.248 0-.496-.245-.496-.49 0-.244.248-.489.496-.489h2.643c.248 0 .496.245.496.49 0 .326-.248.489-.496.489zm-5.203 0h-2.643c-.248 0-.496-.245-.496-.49 0-.244.248-.489.495-.489h2.644c.247 0 .495.245.495.49 0 .326-.248.489-.495.489zm-5.204 0H7.286c-.248 0-.495-.245-.495-.49 0-.244.247-.489.495-.489h1.239c.248 0 .496.245.496.49 0 .326-.248.489-.496.489z"/><path d="M29.504 25h-6.772c-.248 0-.496-.245-.496-.49 0-.244.248-.489.496-.489h6.277V6.98H2.99v17.043h4.213c.247 0 .495.244.495.489 0 .244-.248.489-.495.489H2.496C2.248 25 2 24.755 2 24.51V6.49c0-.245.248-.49.496-.49h27.008c.248 0 .496.245.496.49v18.02c0 .327-.165.49-.496.49z"/><path d="M16.041 17.009c-.082 0-.248 0-.33-.082L2.165 6.897c-.165-.163-.248-.49-.082-.734.165-.163.495-.245.743-.081l13.215 9.785 13.216-9.785c.247-.164.495-.082.66.081.166.245.166.57-.082.734l-13.546 10.03c-.083 0-.165.082-.248.082z"/><path d="M2.496 25c-.166 0-.248-.081-.33-.163-.166-.163-.166-.49 0-.734l10.571-10.112c.166-.163.496-.163.744 0 .165.164.165.49 0 .734L2.826 24.92c-.083.08-.166.08-.33.08zm27.009 0c-.166 0-.248-.081-.33-.163L18.601 14.644c-.165-.163-.165-.49 0-.734.165-.163.495-.163.743 0l10.572 10.193c.166.163.166.49 0 .734-.165.163-.247.163-.413.163z"/></g><defs><clipPath id="clip0_3007_6647"><path fill="#fff" transform="translate(2 6)" d="M0 0h28v19H0z"/></clipPath></defs></svg>
